X:1
T: Quiet and Snug
T: 8x32S 2C (RSCDS Bk 20)
P: Alex. McGlashan's Farewell
C: attrib. to A. McGlashan, arr. T. Traub 7-2-2011
%
K: G
M: 4/4
L: 1/8
|: D|"G"G>Bd>A d/B/G D>G|"Am"E>GD>d "D"c/B/A c/B/A|"G"G>Bd>A d/B/G D>G|"C"E>A"D"F<D "G"G2 G :|
d|"G"d<Bg>f e>dc>B|"Am"A<a"A"a>g "D"f>ed>c|"G"B<dg>d "C"e>g"G"d>g|"Am"c>e"D"d>c "G"B<GG>e||
"G"d<Bg>f e>dc>B|"Am"A<a"A"a>g "D"f>ed>c|"G"B<dg>d "C"e>g"G"d>g|"Am"e>a"D"f<d "G"g2 g |]
